assets/icons/settings-24.svg

<svg width="24" height="24" viewBox="0 0 24 24" fill="none" xmlns="http://www.w3.org/2000/svg">
<path fill-rule="evenodd" clip-rule="evenodd" d="M16 12C16 14.2091 14.2091 16 12 16C9.79086 16 8 14.2091 8 12C8 9.79086 9.79086 8 12 8C14.2091 8 16 9.79086 16 12ZM14 12C14 13.1046 13.1046 14 12 14C10.8954 14 10 13.1046 10 12C10 10.8954 10.8954 10 12 10C13.1046 10 14 10.8954 14 12Z" fill="#F2F2F2"/>
<path fill-rule="evenodd" clip-rule="evenodd" d="M8.0767 3.8341C7.22477 2.98216 5.88632 2.77524 4.96088 3.5467C4.44784 3.97438 3.97434 4.44788 3.54667 4.96092C2.77521 5.88636 2.98213 7.2248 3.83406 8.07674L4.7573 8.99997H3.45073C2.24584 8.99997 1.15292 9.79995 1.04478 11C1.0151 11.3293 0.999939 11.6629 0.999939 12C0.999939 12.3371 1.0151 12.6706 1.04478 13C1.15292 14.2 2.24584 15 3.45073 15H4.7573L3.83406 15.9232C2.98213 16.7751 2.77521 18.1136 3.54667 19.039C3.97434 19.5521 4.44784 20.0256 4.96088 20.4532C5.88633 21.2247 7.22477 21.0178 8.07671 20.1658L8.99994 19.2426V20.5492C8.99994 21.7541 9.79992 22.847 10.9999 22.9551C11.3293 22.9848 11.6628 23 11.9999 23C12.337 23 12.6706 22.9848 12.9999 22.9551C14.2 22.847 14.9999 21.7541 14.9999 20.5492V19.2426L15.9232 20.1658C16.7751 21.0178 18.1136 21.2247 19.039 20.4532C19.552 20.0256 20.0255 19.5521 20.4532 19.039C21.2247 18.1136 21.0177 16.7751 20.1658 15.9232L19.2426 15H20.5492C21.754 15 22.847 14.2 22.9551 13C22.9848 12.6706 22.9999 12.3371 22.9999 12C22.9999 11.6629 22.9848 11.3293 22.9551 11C22.847 9.79995 21.754 8.99997 20.5491 8.99997H19.2426L20.1658 8.07674C21.0177 7.2248 21.2247 5.88636 20.4532 4.96092C20.0255 4.44788 19.552 3.97437 19.039 3.5467C18.1136 2.77524 16.7751 2.98216 15.9232 3.83409L14.9999 4.75733V3.45076C14.9999 2.24587 14.2 1.15295 12.9999 1.04481C12.6706 1.01513 12.337 0.999969 11.9999 0.999969C11.6628 0.999969 11.3293 1.01513 10.9999 1.04481C9.79991 1.15295 8.99994 2.24587 8.99994 3.45076V4.75733L8.0767 3.8341ZM6.3822 4.96802C6.33491 5.00586 6.28801 5.04416 6.2415 5.08294C5.82121 5.4333 5.43326 5.82124 5.0829 6.24153C5.04413 6.28804 5.00582 6.33495 4.96799 6.38223L6.15343 7.56768C6.70515 8.11939 6.76096 8.97065 6.46044 9.6907C6.15984 10.411 5.51121 11 4.73075 11H3.05469C3.04811 11.0596 3.04212 11.1195 3.03671 11.1795C3.0124 11.4492 2.99994 11.7229 2.99994 12C2.99994 12.2771 3.0124 12.5507 3.03671 12.8205C3.04212 12.8805 3.04811 12.9403 3.05469 13H4.73075C5.51121 13 6.15984 13.589 6.46044 14.3092C6.76096 15.0293 6.70515 15.8805 6.15343 16.4323L4.96799 17.6177C5.00582 17.665 5.04413 17.7119 5.0829 17.7584C5.43326 18.1787 5.82121 18.5666 6.2415 18.917C6.28801 18.9558 6.33491 18.9941 6.3822 19.0319L7.56764 17.8465C8.11936 17.2948 8.97062 17.239 9.69067 17.5395C10.4109 17.8401 10.9999 18.4887 10.9999 19.2692V20.9452C11.0596 20.9518 11.1194 20.9578 11.1795 20.9632C11.4492 20.9875 11.7228 21 11.9999 21C12.277 21 12.5507 20.9875 12.8204 20.9632C12.8805 20.9578 12.9403 20.9518 12.9999 20.9452V19.2692C12.9999 18.4887 13.589 17.8401 14.3092 17.5395C15.0293 17.239 15.8805 17.2948 16.4322 17.8465L17.6177 19.0319C17.665 18.9941 17.7119 18.9558 17.7584 18.917C18.1787 18.5666 18.5666 18.1787 18.917 17.7584C18.9557 17.7119 18.9941 17.665 19.0319 17.6177L17.8464 16.4323C17.2947 15.8805 17.2389 15.0293 17.5394 14.3092C17.84 13.589 18.4887 13 19.2691 13H20.9452C20.9518 12.9403 20.9578 12.8805 20.9632 12.8205C20.9875 12.5507 20.9999 12.2771 20.9999 12C20.9999 11.7229 20.9875 11.4492 20.9632 11.1795C20.9578 11.1195 20.9518 11.0596 20.9452 11H19.2691C18.4887 11 17.84 10.411 17.5394 9.6907C17.2389 8.97065 17.2947 8.11939 17.8464 7.56767L19.0319 6.38223C18.9941 6.33495 18.9557 6.28804 18.917 6.24153C18.5666 5.82124 18.1787 5.43329 17.7584 5.08293C17.7119 5.04416 17.665 5.00586 17.6177 4.96802L16.4322 6.15346C15.8805 6.70518 15.0293 6.76099 14.3092 6.46047C13.589 6.15987 12.9999 5.51124 12.9999 4.73078V3.05472C12.9403 3.04815 12.8805 3.04215 12.8204 3.03674C12.5507 3.01243 12.277 2.99997 11.9999 2.99997C11.7229 2.99997 11.4492 3.01243 11.1794 3.03674C11.1194 3.04215 11.0596 3.04815 10.9999 3.05472V4.73078C10.9999 5.51124 10.4109 6.15987 9.69067 6.46047C8.97062 6.76099 8.11936 6.70518 7.56764 6.15346L6.3822 4.96802Z" fill="#F2F2F2"/>
</svg>

<svg xmlns="http://www.w3.org/2000/svg" width="24" height="24" viewBox="0 0 24 24"><path fill-rule="evenodd" d="M16 12a4 4 0 11-8 0 4 4 0 018 0zm-2 0a2 2 0 11-4 0 2 2 0 014 0z"/><path fill-rule="evenodd" d="M8.077 3.834c-.852-.852-2.19-1.059-3.116-.287-.513.427-.987.9-1.414 1.414-.772.925-.565 2.264.287 3.116L4.757 9H3.451c-1.205 0-2.298.8-2.406 2a11.139 11.139 0 000 2c.108 1.2 1.2 2 2.406 2h1.306l-.923.923c-.852.852-1.059 2.19-.287 3.116.427.513.9.987 1.414 1.414.925.772 2.264.565 3.116-.287L9 19.243v1.306c0 1.205.8 2.298 2 2.406a11.133 11.133 0 002 0c1.2-.108 2-1.2 2-2.406v-1.306l.923.923c.852.852 2.19 1.059 3.116.287.513-.427.986-.9 1.414-1.414.772-.925.565-2.264-.287-3.116L19.243 15h1.306c1.205 0 2.298-.8 2.406-2a11.133 11.133 0 000-2c-.108-1.2-1.201-2-2.406-2h-1.306l.923-.923c.852-.852 1.059-2.19.287-3.116a11.07 11.07 0 00-1.414-1.414c-.925-.772-2.264-.565-3.116.287L15 4.757V3.451c0-1.205-.8-2.298-2-2.406a11.139 11.139 0 00-2 0c-1.2.108-2 1.2-2 2.406v1.306l-.923-.923zM6.382 4.968a9.007 9.007 0 00-1.414 1.414l1.185 1.186c.552.551.608 1.403.307 2.123-.3.72-.949 1.309-1.73 1.309H3.056a9.01 9.01 0 00-.018 1.82l.018.18H4.73c.78 0 1.429.589 1.73 1.31.3.72.244 1.57-.308 2.122l-1.185 1.186.115.14a9.07 9.07 0 001.3 1.274l1.185-1.186c.551-.551 1.403-.607 2.123-.306.72.3 1.309.949 1.309 1.73v1.675A8.802 8.802 0 0012 21a9.142 9.142 0 001-.055V19.27c0-.78.589-1.429 1.31-1.73.72-.3 1.57-.244 2.122.307l1.186 1.186a9.071 9.071 0 001.414-1.414l-1.186-1.186c-.551-.551-.607-1.403-.307-2.123.301-.72.95-1.309 1.73-1.309h1.676A8.863 8.863 0 0021 12a9.142 9.142 0 00-.055-1H19.27c-.78 0-1.429-.589-1.73-1.31-.3-.72-.244-1.57.307-2.122l1.186-1.186a9.07 9.07 0 00-1.414-1.414l-1.186 1.185c-.551.552-1.403.608-2.123.307-.72-.3-1.31-.949-1.31-1.73V3.056a9.01 9.01 0 00-1.82-.018l-.18.018V4.73c0 .78-.588 1.429-1.308 1.73-.72.3-1.572.244-2.123-.308L6.382 4.968z"/></svg>
